9/img/envelop.svg

<svg width="59" height="59" viewBox="0 0 59 59" fill="none" xmlns="http://www.w3.org/2000/svg">
<rect width="59" height="59" fill="#E5E5E5"/>
<path d="M35.9101 24.6807C37.1101 23.7521 36.8201 23 35.2601 23H24.7301C23.1701 23 22.8801 23.7614 24.0701 24.6807L27.8201 27.5779C28.441 28.0289 29.2067 28.274 29.9951 28.274C30.7834 28.274 31.5491 28.0289 32.1701 27.5779L35.9101 24.6807Z" fill="#D22856"/>
<path d="M32.9101 29.5L30.7001 31.2457C30.6191 31.2933 30.5316 31.3308 30.4401 31.3571L30.3401 31.4036C30.2314 31.4458 30.117 31.4739 30.0001 31.4871L29.6701 31.4314L29.5501 31.3571C29.4648 31.3229 29.3842 31.2792 29.3101 31.2271L27.0801 29.5L23.1801 26.5286C22.0001 25.6 21.0001 26.0271 21.0001 27.4757V33.335C20.9974 33.6825 21.0685 34.0272 21.2093 34.3492C21.3501 34.6712 21.5579 34.9643 21.8207 35.2118C22.0834 35.4592 22.3962 35.6562 22.7409 35.7915C23.0857 35.9267 23.4558 35.9976 23.8301 36H36.1501C36.526 36 36.8983 35.9309 37.2454 35.7968C37.5924 35.6626 37.9075 35.466 38.1724 35.2183C38.4373 34.9706 38.6469 34.6767 38.7889 34.3534C38.9309 34.0302 39.0027 33.6841 39.0001 33.335V27.4757C39.0001 26.0271 38.0001 25.6186 36.8201 26.5471L32.9101 29.5Z" fill="#D22856"/>
</svg>

<svg width="59" height="59" fill="none" xmlns="http://www.w3.org/2000/svg"><path fill="#E5E5E5" d="M0 0h59v59H0z"/><path d="M35.91 24.68c1.2-.928.91-1.68-.65-1.68H24.73c-1.56 0-1.85.761-.66 1.68l3.75 2.898c.621.45 1.387.696 2.175.696.788 0 1.554-.245 2.175-.696l3.74-2.897Z" fill="#D22856"/><path d="m32.91 29.5-2.21 1.746a1.13 1.13 0 0 1-.26.111l-.1.047c-.109.042-.223.07-.34.083l-.33-.056-.12-.074a1.182 1.182 0 0 1-.24-.13L27.08 29.5l-3.9-2.971C22 25.6 21 26.027 21 27.476v5.859a2.48 2.48 0 0 0 .21 1.014c.14.322.348.615.61.863.263.247.576.444.92.58a3.04 3.04 0 0 0 1.09.208h12.32c.376 0 .748-.07 1.095-.203.347-.134.663-.331.927-.579.265-.247.475-.541.617-.865.142-.323.214-.669.211-1.018v-5.86c0-1.448-1-1.856-2.18-.928L32.91 29.5Z" fill="#D22856"/></svg>
